symbols/web/snippet_folder/materialsymbolsoutlined/snippet_folder_wght500_48px.svg

<svg xmlns="http://www.w3.org/2000/svg" height="48" width="48"><path d="M28.05 31V20h3.75l3.25 3.25V31Zm-3 3h13V22l-5-5h-8Zm-17.9 6.3q-1.35 0-2.375-1.05T3.75 36.9V11q0-1.35 1.025-2.4Q5.8 7.55 7.15 7.55H20.9l3.15 3.15h16.9q1.35 0 2.375 1.025T44.35 14.1v22.8q0 1.3-1.025 2.35T40.95 40.3Zm0-29.3v25.9h33.8V14.1h-18.3L19.5 11H7.15Zm0 0V36.9Z"/></svg>

<svg xmlns="http://www.w3.org/2000/svg" height="48" width="48"><path d="M28.05 31V20H31.8L35.05 23.25V31ZM25.05 34H38.05V22L33.05 17H25.05ZM7.15 40.3Q5.8 40.3 4.775 39.25Q3.75 38.2 3.75 36.9V11Q3.75 9.65 4.775 8.6Q5.8 7.55 7.15 7.55H20.9L24.05 10.7H40.95Q42.3 10.7 43.325 11.725Q44.35 12.75 44.35 14.1V36.9Q44.35 38.2 43.325 39.25Q42.3 40.3 40.95 40.3ZM7.15 11V36.9Q7.15 36.9 7.15 36.9Q7.15 36.9 7.15 36.9H40.95Q40.95 36.9 40.95 36.9Q40.95 36.9 40.95 36.9V14.1Q40.95 14.1 40.95 14.1Q40.95 14.1 40.95 14.1H22.65L19.5 11H7.15Q7.15 11 7.15 11Q7.15 11 7.15 11ZM7.15 11Q7.15 11 7.15 11Q7.15 11 7.15 11V14.1Q7.15 14.1 7.15 14.1Q7.15 14.1 7.15 14.1V36.9Q7.15 36.9 7.15 36.9Q7.15 36.9 7.15 36.9Q7.15 36.9 7.15 36.9Q7.15 36.9 7.15 36.9Z"/></svg>
